dist/intermediate-svg/leftovers.svg

<?xml version="1.0" encoding="utf-8"?><svg width="24" height="24" fill="none" xmlns="http://www.w3.org/2000/svg" viewBox="0 0 24 24"><circle cx="8.416" cy="17.857" r="1.208" stroke="#333"/><circle cx="16.102" cy="17.857" r="1.208" stroke="#333"/><path d="M9.69695 17.8567H14.8209M17.3829 17.8567L19.5179 17.6432V16.8695C19.5179 16.4391 19.2424 16.057 18.8341 15.9208L17.0233 15.3172C16.9784 15.3023 16.9346 15.2842 16.8923 15.263L13.7511 13.6924C13.6122 13.6229 13.4591 13.5868 13.3038 13.5868H10.1239H8.76675C8.53968 13.5868 8.31936 13.6641 8.14205 13.8059L6.42026 15.1834C6.32814 15.2571 6.2237 15.3139 6.11179 15.3512L5.68377 15.4938C5.27543 15.63 5 16.0121 5 16.4425V17.8567H7.13498" stroke="#333"/><path d="M2 22V7C2.98039 5.33333 6.35294 2 12 2C17.6471 2 21.0196 5.33333 22 7V22" stroke="#333"/><path d="M7 6.5H17M15.5 5L17 6.5 15.5 8M17 10H7M8.5 8.5L7 10 8.5 11.5" stroke="#0094FF"/></svg>

<?xml version="1.0" encoding="utf-8"?><svg width="24" height="24" fill="none" xmlns="http://www.w3.org/2000/svg" viewBox="0 0 24 24"><circle cx="8.416" cy="17.857" r="1.208" stroke="#333"/><circle cx="16.102" cy="17.857" r="1.208" stroke="#333"/><path d="M9.697 17.857h5.124m2.562 0l2.135-.214v-.774a1 1 0 00-.684-.948l-1.81-.604a.984.984 0 01-.132-.054l-3.14-1.57a1 1 0 00-.448-.106H8.767a1 1 0 00-.625.219L6.42 15.183a1 1 0 01-.308.168l-.428.143a1 1 0 00-.684.948v1.415h2.135" stroke="#333"/><path d="M2 22V7c.98-1.667 4.353-5 10-5s9.02 3.333 10 5v15" stroke="#333"/><path d="M7 6.5h10M15.5 5L17 6.5 15.5 8M17 10H7M8.5 8.5L7 10l1.5 1.5" stroke="#0094FF"/></svg>
